assets/images/rosters-arrow-2.svg

<svg width="41" height="84" viewBox="0 0 41 84" fill="none" xmlns="http://www.w3.org/2000/svg">
<path d="M26.2464 2C26.2464 2 37.1801 9.52954 38.0837 24.9644C39.1819 43.7241 18.9471 64.1434 4.52523 78.4434M4.52523 78.4434C4.05843 78.9063 2.99916 78.7827 4.52523 78.4434ZM4.52523 78.4434C7.49757 77.7826 1.02088 82.2414 3.99201 81.0983M3.99201 81.0983C5.67025 80.4526 31.8789 71.7787 31.2894 74.8359C30.0952 81.0303 14.5699 81.0658 11.5975 81.2428C9.05188 81.3943 6.49319 80.741 3.99201 81.0983ZM3.99201 81.0983C1.30032 81.4827 3.14515 77.9161 3.5779 75.8226C6.48994 61.7352 7.43573 63.0228 3.7927 50.8909" stroke="#D9315A" stroke-width="4" stroke-linecap="round"/>
</svg>

<svg width="41" height="84" viewBox="0 0 41 84" fill="none" xmlns="http://www.w3.org/2000/svg"><path d="M26.246 2S37.18 9.53 38.084 24.964c1.098 18.76-19.137 39.18-33.559 53.48m0 0c-.467.462-1.526.339 0 0Zm0 0c2.973-.661-3.504 3.797-.533 2.654m0 0c1.678-.645 27.887-9.32 27.297-6.262-1.194 6.194-16.72 6.23-19.692 6.407-2.545.151-5.104-.502-7.605-.145Zm0 0c-2.692.385-.847-3.182-.414-5.275 2.912-14.088 3.858-12.8.215-24.932" stroke="#D9315A" stroke-width="4" stroke-linecap="round"/></svg>
